X:1
T:Christ Is Born
T:Christ Is Born
T:Alfred Elisha Helton
T:Laurene Highfield, 1913
T:Public Domain Courtesy of the Cyber Hymnal™
T:Public Domain Courtesy of the Cyber Hymnal™
C:Alfred Elisha Helton
Z:Public Domain
Z:Courtesy of the Cyber Hymnal™
%%score 1 ( 2 3 )
L:1/8
Q:1/4=90
M:4/4
K:G
V:1 treble 
V:2 bass 
V:3 bass 
V:1
 [DB][Dc] | [Gd][GB][DG][DG] [DG]2 [FA][GB] | [Ac][GB][FA][FA] [FA]2 [DF][DF] | %3
w: 1.~To a|far Ju- de- an hill, Through the|si- lence sweet and still, Came a|
w: 2.~O’er the|far Ju- de- an plain, Sound- ed|out a glad re- frain, “Glo- ry,|
w: 3.~Christ, the|Lord, is born a king, Joy and|hope and faith to bring, Glo- ry,|
 [DG][DG][DA][DA] [GB][GB][G^c][Gc] | [Fd]6 [Fd][Fd] | [Gd][GB][DG][DG] [DG]2 [FA][GB] | %6
w: shin- ing an- gel from the court of|light; “Fear ye|not,” he soft- ly said, To the|
w: glo- ry be to God,” the an- gels|sang: Tell- ing|of Mes- si- ah’s birth, Bring- ing|
w: glo- ry be to God who reigns a-|bove; Peace on|earth, good will to men, Tell it|
 [Ac][GB][FA][FA] [FA]2 [DF][DF] | [DG][DG][DA][DA] [DB][DB][CA][CA] | [B,G]6 || %9
w: shep- herds, sore a- fraid, “Un- to|you the Christ is born this ho- ly|night.”|
w: glad- ness to the earth, All the|heav’n- ly arch- es with sweet mu- sic|rang.|
w: o’er and o’er a- gain, All the|world shall know the full- ness of His|love.|
"^Refrain" [DG][DA] | [GB][GB][DG][DG] [DB][DB][=Fd][Fd] | [Ec]6 [Ge][Gd] | %12
w: Fear ye|not that skies a- bove are glo- ry|riv’n; An- gels|
w: |||
w: |||
 [Ac][GB][FA][FA] [FA]2 [Bd][Ac] | [GB][GA][DG][DG] [DG]2 [DG][DA] | %14
w: hail the Sav- ior’s birth, Peace and|joy shall fill the earth; Un- to|
w: ||
w: ||
 [GB][GB][DG][DG] [DB][DB][=Fd][Fd] | [Ec]6 [Ge][=Fd] | [Ec][EB][EA][EA] [DG][DG][DF][DF] | %17
w: you in Beth- le- hem a king is|giv’n, Glo- ry,|glo- ry be to God who reigns in|
w: |||
w: |||
 [DG]6 |] %18
w: Heav’n!|
w: |
w: |
V:2
 G,[G,A,] | [G,B,][G,D][G,B,][G,B,] [G,B,]2 [D,D][D,D] | [D,D][D,D][D,D][D,D] [D,D]2 [D,C][D,C] | %3
w: ~ ~|~ ~ ~ ~ ~ ~ ~|~ ~ ~ ~ ~ ~ ~|
 [G,B,][G,B,][F,A,][F,A,] [E,G,][E,G,][A,,A,][A,,A,] | [D,A,]6 [D,A,][D,A,] | %5
w: ~ ~ ~ ~ ~ ~ ~ ~|~ ~ ~|
 [G,B,][G,D][G,B,][G,B,] [G,B,]2 [D,D][D,D] | [D,D][D,D][D,D][D,D] [D,D]2 [D,C][D,C] | %7
w: ~ ~ ~ ~ ~ ~ ~|~ ~ ~ ~ ~ ~ ~|
 [G,B,][G,B,][F,A,][F,A,] G,G,[D,F,][D,F,] | [G,,G,]6 || [G,B,][G,C] | %10
w: ~ ~ ~ ~ ~ ~ ~ ~|~|~ ~|
 [G,D][G,D][G,B,][G,B,] G,G,[B,,G,][B,,G,] | [C,G,][C,G,][E,G,]G, [C,G,]2 [G,B,][G,B,] | %12
w: ~ ~ ~ ~ ~ ~ ~ ~|~ are glo- ry riv’n ~ ~|
 [D,D][D,D][D,D][D,D] [D,D]2 [D,D][D,D] | [G,D][G,C][G,B,][G,B,] [G,B,]2 [G,B,][G,C] | %14
w: ~ ~ ~ ~ ~ ~ ~|~ ~ ~ ~ ~ ~ ~|
 [G,D][G,D][G,B,][G,B,] G,G,[B,,G,][B,,G,] | [C,G,][C,G,][E,G,]G, [C,G,]2 G,G, | %16
w: ~ ~ ~ ~ ~ ~ ~ ~|~ a king is giv’n * *|
 [C,G,][C,G,][C,C][C,C] [D,B,][D,B,][D,A,][D,A,] | [G,,B,]6 |] %18
w: ||
V:3
 G, x | x8 | x8 | x8 | x8 | x8 | x8 | x4 G,G, x2 | x6 || x2 | x4 G,G, x2 | x3 G, x4 | x8 | x8 | %14
 x4 G,G, x2 | x3 G, x G,G, x | x8 | x6 |] %18

